X:1
T:Title
%%score { ( 1 3 ) | ( 2 4 ) }
L:1/8
Q:1/4=94
M:4/4
K:Ab
V:1 treble nm="Grand Piano"
V:3 treble 
V:2 bass 
V:4 bass 
V:1
 [CE][Cc][CB][CG] [CB][CA][CE][C=E] | F2 B2 F4 | GdFG cBFG | [CF]2 [_CA]2 [=CE]4 | %4
w: Ira~B.~Wilson * * * * * * *||||
 [CE][Cc][CB][CG] [CB][CA]E[EF] | [EG]2 F2 B4 | Bc[=DB]F BcBA | G2 [=DF]2 E4 | e2 c2 e2 c2 | %9
w: |||||
 z4 d4[K:bass] | d2 B2 d2 B2 | z4 c4[K:bass] | e2 c2 e2 c2 | z4 [=Ec]4 | %14
w: |||||
 [Fc][FB][Fc][FB] [Ec][EB][Ee][Fd] | [Ec]2 [DB]2 [CA]4 |] %16
w: ||
V:2
 [A,,A,][A,,E,][A,,E,][A,,E,] [A,,E,][A,,E,][A,,A,][A,,A,] | [D,A,D]2 [D,F,D]2 [D,B,D]4 | %2
 [E,B,D][E,B,D][E,G,D][E,G,D] [E,G,D][E,G,D][E,G,D][E,G,D] | [A,,A,]2 [A,,F,]2 [A,,A,]4 | %4
 [A,,A,][A,,E,][A,,E,][A,,E,] [A,,E,][A,,E,][C,A,][_C,A,] | [B,,B,]2 [A,B,=D]2 [G,B,E]4 | %6
 [F,A,=D][F,A,D][B,,A,][A,B,D] [G,B,E][G,B,E][A,CE][A,CE] | [B,E]2 [B,,A,]2 [E,G,]4 | %8
 [A,CE]2 [A,E]2 [A,CE]2 [A,E]2 | [E,CE][E,B,E][E,B,E][E,=A,E] [B,E]4 | %10
 [E,B,E]2 [E,G,E]2 [E,B,E]2 [E,G,E]2 | [A,D][K:treble][A,C][A,C][A,D] [A,E]4 | %12
 [A,CE]2 [A,E]2 [A,CE]2 [A,_G]2 | [D,A,][D,A,][D,A,][D,F,] .[C,G,]2 =E,C, | %14
 [D,A,][D,A,][=D,A,][D,A,] [E,G,][_D,G,][C,A,][D,A,] | [E,A,]2 [E,G,]2 [A,,A,]4 |] %16
V:3
 x8 | x8 | x8 | x8 | x8 | x8 | x8 | x8 | x8 | eddc z[K:bass] E,G,B, | x8 | BAAB z[K:bass] A,,C,E, | %12
 x8 | [Fe][Fd][FA][FB] z G, B,2 | x8 | x8 |] %16
V:4
 x8 | x8 | x8 | x8 | x8 | x8 | x8 | x8 | x8 | z4 .E,2 z2 | x8 | x[K:treble] x7 | x8 | x8 | x8 | %15
 x8 |] %16

